X: 597
M: 6/8
L: 1/8
K: D
V: 1
|:\
|:\
d/e/fd ecA | B/c/dF E2D |
d/e/fd ecA | B3 d3 |\
d/e/fd ecA | B/c/dF E2D | DFA AFA | B3 d3 |]
V: 2 clef=bass middle=d
|:\
d3  d3  | g2z a2d | d3  d3  | g3 d3 :|
|:\
d3  a3  | g2z a2d | d2z a2z | g3 d3 |
d2z a2z | g2z a2d | d2z d2z | g3 d3 |]

